usr/share/icons/biglinux-icons-material/22/actions/view-refresh.svg

<svg xmlns="http://www.w3.org/2000/svg" viewBox="0 0 22 22">
  <defs id="defs3051">
    <style type="text/css" id="current-color-scheme">
      .ColorScheme-Text {
        color:#363636;
      }
      .ColorScheme-Highlight {
        color:#3daee9;
      }
      </style>
  </defs>
 <path 
     style="fill:currentColor;fill-opacity:1;stroke:none" 
     d="M 11 3 C 9.558286 3 8.2107109 3.3829219 7.0449219 4.0449219 L 7.7832031 4.7832031 C 7.7832031 4.7832031 7.7851562 4.78125 7.7851562 4.78125 L 10.564453 7.5585938 L 11.271484 6.8515625 L 8.7890625 4.3710938 C 9.4846855 4.1384172 10.223912 4 11 4 C 14.87797 4 18 7.122 18 11 C 18 12.1625 17.714172 13.253897 17.216797 14.216797 L 17.955078 14.955078 C 18.617129 13.789278 19 12.4417 19 11 C 19 6.568 15.431966 3 11 3 z M 4.0449219 7.0449219 C 3.3828709 8.2107219 3 9.5583 3 11 C 3 15.432 6.568034 19 11 19 C 12.441714 19 13.789289 18.617078 14.955078 17.955078 L 14.271484 17.271484 L 14.273438 17.269531 L 11.445312 14.441406 L 10.738281 15.148438 L 13.216797 17.626953 C 12.519497 17.860874 11.778264 18 11 18 C 7.12203 18 4 14.878 4 11 C 4 9.8375 4.2858291 8.7461031 4.7832031 7.7832031 L 4.0449219 7.0449219 z "
     class="ColorScheme-Text"
     />
</svg>

<svg xmlns="http://www.w3.org/2000/svg" viewBox="0 0 22 22"><defs id="defs3051"><style id="current-color-scheme" type="text/css">.ColorScheme-Highlight{color:#3daee9}</style></defs><path d="M11 3c-1.442 0-2.79.383-3.955 1.045l.738.738.002-.002 2.78 2.778.706-.707-2.482-2.48A6.945 6.945 0 0 1 11 4c3.878 0 7 3.122 7 7a6.985 6.985 0 0 1-.783 3.217l.738.738A7.981 7.981 0 0 0 19 11c0-4.432-3.568-8-8-8zM4.045 7.045A7.981 7.981 0 0 0 3 11c0 4.432 3.568 8 8 8 1.442 0 2.79-.383 3.955-1.045l-.684-.684.002-.001-2.828-2.829-.707.707 2.479 2.479A6.945 6.945 0 0 1 11 18c-3.878 0-7-3.122-7-7 0-1.162.286-2.254.783-3.217l-.738-.738z" style="fill:currentColor;fill-opacity:1;stroke:none;color:#dedede"/></svg>
